assets/marketplace_buy.svg

<svg fill="none" height="32" viewBox="0 0 27 32" width="27" xmlns="http://www.w3.org/2000/svg" xmlns:xlink="http://www.w3.org/1999/xlink"><linearGradient id="a"><stop offset="0" stop-color="#ceae11"/><stop offset="1" stop-color="#ad7200"/></linearGradient><linearGradient id="b" gradientUnits="userSpaceOnUse" x1="-13.1667" x2="17.4548" xlink:href="#a" y1="15.5179" y2="41.4997"/><linearGradient id="c" gradientUnits="userSpaceOnUse" x1="5.64288" x2="17.3581" xlink:href="#a" y1="18.3387" y2="24.5869"/><path d="m17.8165 5.95591 1.0927-2.73222v.00026c.2894-.72423.201-1.54507-.2365-2.19111-.4374-.645787-1.1666-1.03284-1.9468-1.03284h-7.11801c-.7804 0-1.50994.387053-1.94733 1.03311-.43717.64606-.5256 1.46715-.2359 2.19138l1.0927 2.73141c-4.31874 2.27696-8.51736 7.6353-8.51736 13.3239 0 6.9219 5.41432 11.7559 13.1667 11.7559 7.7523 0 13.1666-4.8341 13.1666-11.7559 0-5.6888-4.1983-11.04727-8.5173-13.3239zm-4.6497 23.19889c-6.64499 0-11.2857-4.0608-11.2857-9.875 0-5.2086 4.26157-10.28145 8.2097-11.99446.4668-.20258.6877-.73975.4988-1.21234l-1.41908-3.54647c-.058-.14512-.04015-.30912.04723-.43849.08765-.12936.23355-.20677.38968-.20677h7.11807c.1561 0 .302.07741.3894.20651.0877.12911.1052.29338.0475.43822l-1.1826 2.95606h-3.2836c-.5193 0-.9405.4209-.9405.94047 0 .51931.4212.94048.9405.94048h3.7063c3.9028 1.77864 8.0498 6.77879 8.0498 11.91719 0 5.8142-4.6407 9.875-11.2857 9.875z" fill="url(#b)"/><path d="m13.3948 17.4266c-2.1091-.5275-2.1091-1.0332-2.1091-1.4391 0-.7647.8613-1.4107 1.881-1.4107.9103 0 1.7088.5106 1.8568 1.1877.0515.2453.1989.4602.4097.5964.2104.1365.4668.1829.7119.1294.2451-.0538.4587-.2031.593-.4149.1344-.212.1787-.4686.1228-.7132-.1697-.6437-.5185-1.226-1.0061-1.6792-.4873-.4534-1.0934-.7588-1.7476-.8814v-.576c0-.5193-.4212-.9404-.9405-.9404s-.9405.4211-.9405.9404v.5784c-1.6198.3668-2.82141 1.6531-2.82141 3.1836 0 2.38 2.38681 2.9765 3.53381 3.2633 2.109.5274 2.109 1.0331 2.109 1.439 0 .7647-.8612 1.4108-1.8809 1.4108-.9103 0-1.7089-.5107-1.8568-1.1877-.0517-.2454-.1992-.46-.4097-.5962-.2107-.1362-.4668-.1827-.7119-.1289-.2451.0536-.45844.2029-.59279.4146-.13436.2118-.17871.4684-.12307.713.16978.6434.51852 1.2257 1.00606 1.6789.4873.4534 1.0935.7589 1.7477.8814v.576c0 .5193.4212.9405.9405.9405s.9405-.4212.9405-.9405v-.5784c1.6198-.3668 2.8214-1.6531 2.8214-3.1835 0-2.3801-2.3869-2.9766-3.5338-3.2634z" fill="url(#c)"/></svg>

<svg width="27" height="32" viewBox="0 0 27 32" fill="none" xmlns="http://www.w3.org/2000/svg">
<path d="M17.8165 5.95591L18.9092 3.22369V3.22395C19.1986 2.49972 19.1102 1.67888 18.6727 1.03284C18.2353 0.387053 17.5061 0 16.7259 0H9.60789C8.82749 0 8.09795 0.387053 7.66056 1.03311C7.22339 1.67917 7.13496 2.50026 7.42466 3.22449L8.51736 5.9559C4.19862 8.23286 0 13.5912 0 19.2798C0 26.2017 5.41432 31.0357 13.1667 31.0357C20.919 31.0357 26.3333 26.2016 26.3333 19.2798C26.3333 13.591 22.135 8.23253 17.816 5.9559L17.8165 5.95591ZM13.1668 29.1548C6.52181 29.1548 1.8811 25.094 1.8811 19.2798C1.8811 14.0712 6.14267 8.99835 10.0908 7.28534C10.5576 7.08276 10.7785 6.54559 10.5896 6.073L9.17052 2.52653C9.11252 2.38141 9.13037 2.21741 9.21775 2.08804C9.3054 1.95868 9.4513 1.88127 9.60743 1.88127H16.7255C16.8816 1.88127 17.0275 1.95868 17.1149 2.08778C17.2026 2.21689 17.2201 2.38116 17.1624 2.526L15.9798 5.48206H12.6962C12.1769 5.48206 11.7557 5.90296 11.7557 6.42253C11.7557 6.94184 12.1769 7.36301 12.6962 7.36301H16.4025C20.3053 9.14165 24.4523 14.1418 24.4523 19.2802C24.4523 25.0944 19.8116 29.1552 13.1666 29.1552L13.1668 29.1548Z" fill="url(#paint0_linear_945_30148)"/>
<path d="M13.3948 17.4266C11.2857 16.8991 11.2857 16.3934 11.2857 15.9875C11.2857 15.2228 12.147 14.5768 13.1667 14.5768C14.077 14.5768 14.8755 15.0874 15.0235 15.7645C15.075 16.0098 15.2224 16.2247 15.4332 16.3609C15.6436 16.4974 15.9 16.5438 16.1451 16.4903C16.3902 16.4365 16.6038 16.2872 16.7381 16.0754C16.8725 15.8634 16.9168 15.6068 16.8609 15.3622C16.6912 14.7185 16.3424 14.1362 15.8548 13.683C15.3675 13.2296 14.7614 12.9242 14.1072 12.8016V12.2256C14.1072 11.7063 13.686 11.2852 13.1667 11.2852C12.6474 11.2852 12.2262 11.7063 12.2262 12.2256V12.804C10.6064 13.1708 9.40479 14.4571 9.40479 15.9876C9.40479 18.3676 11.7916 18.9641 12.9386 19.2509C15.0476 19.7783 15.0476 20.284 15.0476 20.6899C15.0476 21.4546 14.1864 22.1007 13.1667 22.1007C12.2564 22.1007 11.4578 21.59 11.3099 20.913C11.2582 20.6676 11.1107 20.453 10.9002 20.3168C10.6895 20.1806 10.4334 20.1341 10.1883 20.1879C9.9432 20.2415 9.72986 20.3908 9.59551 20.6025C9.46115 20.8143 9.4168 21.0709 9.47244 21.3155C9.64222 21.9589 9.99096 22.5412 10.4785 22.9944C10.9658 23.4478 11.572 23.7533 12.2262 23.8758V24.4518C12.2262 24.9711 12.6474 25.3923 13.1667 25.3923C13.686 25.3923 14.1072 24.9711 14.1072 24.4518V23.8734C15.727 23.5066 16.9286 22.2203 16.9286 20.6899C16.9286 18.3098 14.5417 17.7133 13.3948 17.4265V17.4266Z" fill="url(#paint1_linear_945_30148)"/>
<defs>
<linearGradient id="paint0_linear_945_30148" x1="-13.1667" y1="15.5179" x2="17.4548" y2="41.4997" gradientUnits="userSpaceOnUse">
<stop stop-color="#CEAE11"/>
<stop offset="1" stop-color="#AD7200"/>
</linearGradient>
<linearGradient id="paint1_linear_945_30148" x1="5.64288" y1="18.3387" x2="17.3581" y2="24.5869" gradientUnits="userSpaceOnUse">
<stop stop-color="#CEAE11"/>
<stop offset="1" stop-color="#AD7200"/>
</linearGradient>
</defs>
</svg>
